.storybook/public/story-assets/icons-link_2_64.svg

<svg width="64" height="64" viewBox="0 0 64 64" fill="none" xmlns="http://www.w3.org/2000/svg">
<path fill-rule="evenodd" clip-rule="evenodd" d="M10.0915 11.5055C5.07262 16.8685 2 24.0754 2 32C2 39.8253 4.99614 46.9509 9.90384 52.2921L30.391 31.805L10.0915 11.5055ZM11.5057 10.0913L31.8052 30.3908L52.2921 9.90384C46.9509 4.99614 39.8253 2 32 2C24.0755 2 16.8686 5.07255 11.5057 10.0913ZM53.7192 11.3051L33.2194 31.805L53.8119 52.3975L53.9087 52.4943C58.9275 47.1314 62 39.9245 62 32C62 23.9763 58.85 16.6883 53.7192 11.3051ZM52.4945 53.9085L52.3977 53.8117L31.8052 33.2192L11.3051 53.7192C16.6883 58.85 23.9763 62 32 62C39.9246 62 47.1315 58.9274 52.4945 53.9085Z" fill="#848894"/>
</svg>

<svg xmlns="http://www.w3.org/2000/svg" width="64" height="64" fill="none"><path fill="#848894" fill-rule="evenodd" d="M10.092 11.506A29.9 29.9 0 0 0 2 32c0 7.825 2.996 14.95 7.904 20.292L30.39 31.805zm1.414-1.415 20.3 20.3L52.291 9.904A29.9 29.9 0 0 0 32 2a29.9 29.9 0 0 0-20.494 8.091m42.213 1.214-20.5 20.5 20.593 20.593.097.096A29.9 29.9 0 0 0 62 32c0-8.024-3.15-15.312-8.28-20.695M52.495 53.91l-.097-.097-20.593-20.593-20.5 20.5A29.9 29.9 0 0 0 32 62a29.9 29.9 0 0 0 20.495-8.092" clip-rule="evenodd"/></svg>
